X:216
%%topspace -50
T:Rockin' Robin
M:4/4
L:1/4
K:G
"(D7)"ddd | "G"D4- | D D/D/ E G | B4- | Bddd | D4- | D D/D/ E G | "D"A4- | Addd | 
"G"D4- | "G7/F"DG/G/AB | "C/E"BA2G | "Cm/Eb"C2E2 | "G"D2 "Em"d2 | "A7"B/G/A/_B/ "D7"A/G/E | "G"G4- | G ||
"(G)"BAG | "C7"_B4- | B d _B/A/G | "G"A =B3- | BBAG | "A7"A4- | AB^ce | "D"d2-"Am"d2- | 
"D"dDEG | "G"B4- | "G7/F"BBAG | "C/E"C4- | "Cm/Eb"CDEG | "G"D2 "Em"d2 | "A7"B/G/A/_B/ "D7"A/G/E | "G"G4- | G |]

